Desktop/project_createx/public/images/news/profile.svg

<svg width="16" height="17" viewBox="0 0 16 17" fill="none" xmlns="http://www.w3.org/2000/svg">
<path fill-rule="evenodd" clip-rule="evenodd" d="M8.00055 2.66732C6.71188 2.66732 5.66721 3.71199 5.66721 5.00065C5.66721 6.28932 6.71188 7.33398 8.00055 7.33398C9.28921 7.33398 10.3339 6.28932 10.3339 5.00065C10.3339 3.71199 9.28921 2.66732 8.00055 2.66732ZM4.33388 5.00065C4.33388 2.97561 5.9755 1.33398 8.00055 1.33398C10.0256 1.33398 11.6672 2.97561 11.6672 5.00065C11.6672 7.0257 10.0256 8.66732 8.00055 8.66732C5.9755 8.66732 4.33388 7.0257 4.33388 5.00065Z" fill="#787A80"/>
<path fill-rule="evenodd" clip-rule="evenodd" d="M4.06992 10.6673C3.60771 10.6673 3.24643 10.8924 3.09979 11.2157C2.89681 11.6633 2.71301 12.1961 2.66964 12.7014C2.65025 12.9273 2.74444 13.0938 2.87423 13.1744C3.56033 13.6006 5.15014 14.334 8.00055 14.334C10.851 14.334 12.4408 13.6006 13.1269 13.1744C13.2567 13.0938 13.3508 12.9273 13.3315 12.7014C13.2881 12.1961 13.1043 11.6633 12.9013 11.2157C12.7547 10.8924 12.3934 10.6673 11.9312 10.6673H4.06992ZM1.8855 10.665C2.2908 9.77136 3.19582 9.33398 4.06992 9.33398H11.9312C12.8053 9.33398 13.7103 9.77136 14.1156 10.665C14.3484 11.1783 14.5982 11.8683 14.6599 12.5874C14.7161 13.2422 14.4439 13.9259 13.8304 14.307C12.9281 14.8676 11.0936 15.6673 8.00055 15.6673C4.90748 15.6673 3.07301 14.8676 2.17066 14.307C1.55715 13.9259 1.28499 13.2422 1.34119 12.5874C1.40291 11.8683 1.65271 11.1783 1.8855 10.665Z" fill="#787A80"/>
</svg>

<svg xmlns="http://www.w3.org/2000/svg" width="16" height="17" fill="none"><path fill="#787A80" fill-rule="evenodd" d="M8 2.667a2.333 2.333 0 1 0 0 4.667 2.333 2.333 0 0 0 0-4.667M4.335 5.001a3.667 3.667 0 1 1 7.333 0 3.667 3.667 0 0 1-7.333 0M4.07 10.667c-.462 0-.824.225-.97.549-.203.447-.387.98-.43 1.485-.02.226.074.393.204.473.686.427 2.276 1.16 5.127 1.16s4.44-.733 5.126-1.16c.13-.08.224-.247.204-.473-.043-.505-.227-1.038-.43-1.485-.146-.324-.508-.549-.97-.549zm-2.185-.002c.406-.894 1.31-1.331 2.185-1.331h7.861c.874 0 1.78.437 2.185 1.331.232.513.482 1.203.544 1.922.056.655-.216 1.339-.83 1.72-.902.56-2.736 1.36-5.83 1.36s-4.927-.8-5.83-1.36c-.613-.381-.885-1.065-.829-1.72.062-.719.312-1.409.545-1.922" clip-rule="evenodd"/></svg>
